src/assets/filled/FolderAdd.svg

<?xml version="1.0" encoding="UTF-8"?>
<svg width="24" height="24" viewBox="0 0 24 24" xmlns="http://www.w3.org/2000/svg">
 <path d="m21.017 7.9918c0.3979 0.56658-0.0764 1.2582-0.7687 1.2582h-17.248c-0.55228 0-1-0.44772-1-1v-1.83c0-2.44 1.98-4.42 4.42-4.42h2.32c1.63 0 2.14 0.53 2.79 1.4l1.4 1.86c0.31 0.41 0.35 0.46 0.93 0.46h2.79c1.8046 0 3.4016 0.89709 4.3669 2.2718z"/>
 <path d="m21.983 11.746c-0.0019-0.551-0.4491-0.9966-1-0.9966l-17.983 3e-4c-0.55227 0-0.99998 0.4477-0.99998 1v4.9c0 2.95 2.4 5.35 5.35 5.35h9.3c2.95 0 5.35-2.4 5.35-5.35l-0.0166-4.9037zm-7.4834 5.0037h-1.69v1.75c0 0.41-0.34 0.75-0.75 0.75-0.42 0-0.75-0.34-0.75-0.75v-1.75h-1.81c-0.41 0-0.75-0.34-0.75-0.75s0.34-0.75 0.75-0.75h1.81v-1.75c0-0.41 0.33-0.75 0.75-0.75 0.41 0 0.75 0.34 0.75 0.75v1.75h1.69c0.41 0 0.75 0.34 0.75 0.75s-0.34 0.75-0.75 0.75z"/>
</svg>

<svg width="24" height="24" viewBox="0 0 24 24"  xmlns="http://www.w3.org/2000/svg">
<path d="M21.0169 7.99175C21.4148 8.55833 20.9405 9.25 20.2482 9.25H3C2.44772 9.25 2 8.80228 2 8.25V6.42C2 3.98 3.98 2 6.42 2H8.74C10.37 2 10.88 2.53 11.53 3.4L12.93 5.26C13.24 5.67 13.28 5.72 13.86 5.72H16.65C18.4546 5.72 20.0516 6.61709 21.0169 7.99175Z" />
<path d="M21.9834 11.7464C21.9815 11.1954 21.5343 10.7498 20.9834 10.7498L2.99998 10.7501C2.44771 10.7501 2 11.1978 2 11.7501V16.6501C2 19.6001 4.4 22.0001 7.35 22.0001H16.65C19.6 22.0001 22 19.6001 22 16.6501L21.9834 11.7464ZM14.5 16.7501H12.81V18.5001C12.81 18.9101 12.47 19.2501 12.06 19.2501C11.64 19.2501 11.31 18.9101 11.31 18.5001V16.7501H9.5C9.09 16.7501 8.75 16.4101 8.75 16.0001C8.75 15.5901 9.09 15.2501 9.5 15.2501H11.31V13.5001C11.31 13.0901 11.64 12.7501 12.06 12.7501C12.47 12.7501 12.81 13.0901 12.81 13.5001V15.2501H14.5C14.91 15.2501 15.25 15.5901 15.25 16.0001C15.25 16.4101 14.91 16.7501 14.5 16.7501Z" />
</svg>
